X: 76
T: No_167_The_Pigeon_and_His_Tiswin_Lodge.krn
N: Derived from No_167_The_Pigeon_and_His_Tiswin_Lodge.krn
%%abc-version 2.0
%%abcx-abcm2ps-target-version 5.9.1 (29 Sep 2008)
%%abc-creator hum2abc beta
%%abcx-conversion-date 2019/03/15 08:37:56
%%humdrum-veritas 3434321136
%%humdrum-veritas-data 275953319
%%linebreak <none>
%%barnumbers 0
L: 1/8
M: 3/4
K: G clef=bass
E,3/E,/ [I:setbarnb 1]| 
(3G,G,G,G,2G,3/G,/ ||  
[M:2/4]G,2G,3/F,/ | 
G,F, E,3/E,/ ||  
[M:3/4]E,2C,3/E,/ E,3/C,/ ||  
[M:5/8]E,/E,/E,E,(E,C,) ||  
[M:2/4]E,2E,3/E,/ | 
E, z E,3/E,/ ||  
[M:3/4](3G,G,G,G,2G,3/G,/ ||  
[M:2/4]G,2G,3/F,/ | 
G,F, E,3/E,/ ||  
[M:3/4]E,2C,3/E,/ E,3/C,/ ||  
[M:5/8]E,/E,/E,E,(E,C,) ||  
[M:2/4]E,2E,E, | 
E, z E,3/E,/ ||  
[M:3/4](3G,G,G, G,F, E, z | 
G,2(3G,F,E, G,F, ||  
[M:5/8]E,E,E,E,D, ||  
[M:2/4]E,2E,3/E,/ | 
E, z F,/E,3/ | 
D,3/D,/ D,3/B,,/ | 
D,2D,D, | 
D,2z2 |]  



